**kern	**dynam
*clefF4	*
*k[b-]	*
*F:	*
*M3/4	*
=1	=1
!LO:TX:a:B:t=Allegro	!
(>[4F	p
8FL]	.
16GL	.
16FJJ)	.
8E'L	.
8F'J	.
=2	=2
4C'	.
4r	.
4r	.
=3	=3
(>[4F	.
8FL]	.
16GL	.
16FJJ)	.
8E'L	.
8F'J	.
=4	=4
4D	.
4r	.
4r	.
=5	=5
(2.D	.
=6	=6
2.E)	[
=7	=7
(>4F	[
4D	.
4BB-)	.
=8	=8
!!linebreak:original
2.C	.
=9	=9
(>[4F	f
8FL]	.
16GL	.
16FJJ)	.
8E'L	.
8F'J	.
=10	=10
4C	.
4r	.
4r	.
=11	=11
(>[4F	.
8FL]	.
16GL	.
16FJJ)	.
8E'L	.
8F'J	.
=12	=12
4D	.
4r	.
4r	.
=13	=13
2.r	.
=14	=14
2.c#X	<
=15	=15
2.r	[
=16	=16
2.f#X	<
=17	=17
2.r	[
=18	=18
!LO:TX:b:Bi:t=Cresc.	!
4.B-	.
(8B-~L	.
8B-~	.
8B-~J)	.
=19	=19
(>2c	.
4C)	.
=20	=20
!!linebreak:original
4F	p
4r	.
4r	.
=21	=21
2.r	.
=22	=22
2.Bn	sf
=23	=23
2.r	.
=24	=24
2.C	sf
=25	=25
2.r	.
=26	=26
2F	sf
4FF	.
=27	=27
2B-X	sf
4BB-	.
=28	=28
4C'	.
4C'	f
4C'	.
=29	=29
4FF	.
4r	.
4r	.
=30	=30
(4.C	p
16DLL	.
16CJJ)	.
8BBn'L	.
8C'J	.
=31	=31
4CC	.
4r	.
4r	.
=32	=32
!!linebreak:original
4.C	pp
16DLL	.
16CJJ	.
8BBn'L	.
8C'J	.
=33	=33
4CC	.
4r	.
4r	.
=34	=34
(<4.C	.
16DLL	.
16CJJ)	.
8BBn'L	.
8C'J	.
=35	=35
4CC	.
4r	.
4r	.
=36	=36
(<4.C	.
16DLL	.
16CJJ)	.
8BBn'L	.
8C'J	.
=37	=37
4C#X'	.
4AA'	.
4C#'	.
=38	=38
4D	.
4r	.
4r	.
=39	=39
4BBn	.
4GG'	.
4BB'	.
=40	=40
4Cn	.
4r	.
4r	.
=41	=41
!!linebreak:original
[2.AA-X	.
=42	=42
2.AA	.
=43	=43
[2.BB-	.
=44	=44
2.BB-]	.
=45	=45
[2.C	.
=46	=46
!LO:TX:b:Bi:t=Cresc.	!
4C']	.
4C'	.
4C'	.
=47	=47
2.D	sf
=48	=48
4E-X'	.
4F'	f
4F#X'	.
=49	=49
4G	.
4r	.
4r	.
=50	=50
16G'LL	p
16GG'	.
16AA'	.
16BB-X'JJ	.
16C'LL	.
16D'	.
16En'	.
16F#X'JJ	.
16G'LL	.
16F#'	.
16G'	.
16F#'JJ	.
=51	=51
!!linebreak:original
4G	.
4r	.
4r	.
=52	=52
!LO:TX:b:Bi:t=Cresc.	!
16G'LL	.
16GG'	.
16AA'	.
16BBn'JJ	.
16CLL	.
16D'	.
16E'	.
16F#X'JJ	.
16G'LL	.
16F#'	.
16G'	.
16F#'JJ	.
=53	=53
4G	.
8r	.
8G'L	.
!LO:TX:b:Bi:t=Cresc.	!
8G'	.
8C'J	.
=54	=54
16G'LL	ff
16GG'	.
16AA'	.
16BBn'JJ	.
16C'LL	.
16D'	.
16E	.
16F#X'JJ	.
16GLL	.
16F#'	.
16G'	.
16F#'JJ	.
=55	=55
!!linebreak:original
4G	.
4r	.
4r	.
=56	=56
2.r	.
=57	=57
2.r	.
=58	=58
2.r	.
=59	=59
2.r	.
=60	=60
2.r	.
=61	=61
2.r	.
=62	=62
2.r	.
=63	=63
2.r	.
=64	=64
4r	.
8r	.
8F#XL	p
8G	.
8G#XJ	.
=65	=65
8A')	.
8AL)	.
8FnJ	.
(>8FL	.
8D'J)	.
8D	.
=66	=66
8BBn)	.
(>8BBL	.
8GGJ)	.
(>8GGL	.
8BBJ)	.
8BB	.
=67	=67
8C')	.
(8CL	.
8D'J)	.
8DL	.
8E'J)	.
8E'	.
=68	=68
4.F	.
8r	.
4r	.
=69	=69
2.r	.
=70	=70
2.r	.
=71	=71
2.r	.
=72	=72
!!linebreak:original
*clefG2	*
(>4.gg	p
16aaLL	.
16ggJJ)	.
8ff#X'L	.
8gg'J	.
=73	=73
2.gg	.
=74	=74
(>4.gg	.
16aaLL	.
16ggJJ)	.
8ff#X'L	.
8gg'J	.
=75	=75
2.gg	.
=76	=76
(>4.gg	p
16aaLL	.
16ggJJ)	.
8ff#X'L	.
8gg'J	.
=77	=77
2.bb-	f
=78	=78
4aa	.
*clefF4	*
4F	.
4r	.
=79	=79
2.r	.
=80	=80
4r	.
4r	.
16r	.
16AAnLL	.
16BBn	.
16C#XJJ	.
=81	=81
!!linebreak:original
16DLL	.
16E	.
16F	.
16GJJ	.
16ALL	.
16G	.
16F	.
16EJJ	.
16DLL	.
16Cn	.
16BBn	.
16AAJJ	.
=82	=82
(>4.GG	f
16AALL	.
16BBnJJ	.
16CLL	.
16D	.
16E	.
16F#XJJ	.
=83	=83
8GL)	.
8G	.
8G	.
8G	.
8G	.
8GJ	.
=84	=84
4C'	.
4r	.
4r	.
=85	=85
2.r	.
=86	=86
2.r	.
=87	=87
2.r	.
=88	=88
2.r	.
=89	=89
2.c	p
=90	=90
!LO:TX:b:Bi:t=Cresc.	!
[2.F#X	fp
=91	=91
!!linebreak:original
(>4F#_	.
4G')	.
4GG'	.
=92	=92
4C	.
4r	.
4r	.
=93	=93
2.r	.
=94	=94
2.r	.
=95	=95
2.r	.
=96	=96
2.r	.
=97	=97
2.C	sf
=98	=98
2.AA-X	sf
=99	=99
2FF#X	sf
4FFn	sf
=100	=100
!	!LO:DY:a
4EE'	ff
4DD'	.
4GG'	.
=101	=101
(>4.C	.
16DLL	p
16CJJ)	.
8BB-X'L	.
8C'J	.
=102	=102
4CC	.
4r	.
4r	.
=103	=103
!!linebreak:original
(>4.C	.
16DLL	.
16CJJ)	.
8BBn'L	.
8C'J	.
=104	=104
4CC	.
4r	.
4r	.
=105	=105
(>16DLL	.
16C	.
16BBn	.
16CJJ)	.
16DLL	.
16C	.
16BB)	.
(>16CJJ	.
16DLL	.
16C	.
16BB	.
16CJJ)	.
=106	=106
4CC	.
4r	.
4r	.
=107	=107
(>16DLL	.
16C	.
16BBn	.
16CJJ)	.
16DLL	.
16C	.
16BB)	.
(>16CJJ	.
16DLL	.
16C	.
16BB	.
16CJJ)	.
=108	=108
4CC	.
4r	.
4r	.
=109	=109
!!linebreak:original
4C'	.
4C'	.
4r	.
=110	=110
2.r	.
=111	=111
4r	.
4r	.
!LO:TX:b:Bi:t=Cresc.	!
16ELL	.
16c	.
16Bn	.
16AJJ	.
=112	=112
16GLL	.
16F	.
16E	.
16DJJ	.
(16CLL	.
16BBn	.
16C	.
16BBJJ	.
16CLL	.
16BB	.
16C	.
16BBJJ)	.
=113	=113
4C'	f
4CC'	.
4CC'	.
=114	=114
4CC'	.
4r	.
4r	.
=115:|!	=115:|!
4AA	f
4r	.
4r	.
=116	=116
2.r	.
=117	=117
!!linebreak:original
16ELL	.
16A	.
16G#X	.
16F#XJJ	.
16ELL	.
16D	.
16C#X	.
16BBnJJ	.
(16AALL	.
16GG#X	.
16AA	.
16GG#JJ)	.
=118	=118
4AA'	.
4AA'	.
4AA'	.
=119	=119
(<4.BB-X	fp
16CLL	.
16BB-JJ)	.
8AA'L	.
8BB-'J	.
=120	=120
2.FF	.
=121	=121
(<4.BB-	fp
16CLL	.
16BB-JJ)	.
8AA'L	.
8BB-'J	.
=122	=122
2.GG	sf
=123	=123
(2.G	.
=124	=124
2.A)	sf
=125	=125
2.r	.
=126	=126
!!linebreak:original
(>2.B-	.
=127	=127
2.c#X)	.
=128	=128
2.r	.
=129	=129
(>4.B-	f
16cnLL	.
16B-JJ)	.
8A'L	.
8B-'J	.
=130	=130
4C#X'	.
4D'	.
4D#X'	.
=131	=131
4E'	.
4c#X'	.
4dn'	.
=132	=132
4e'	.
4e'	.
4f'	.
=133	=133
4g'	.
(4.g	.
8f)	.
=134	=134
4g'	.
(4.g	.
8f)	.
=135	=135
2.r	.
=136	=136
!!linebreak:original
(>4.e-X	f
16fLL	.
16e-JJ)	.
8d'L	.
8e-'J	.
=137	=137
4F#X'	.
4G'	.
4G-X'	.
=138	=138
4A'	.
4A'	.
4B-'	.
=139	=139
(>[4c	.
8cL]	sf
16AL	.
(>16B-JJ	.
8cL)	.
8B-J)	.
=140	=140
(>[4c	.
(8cL]	sf
16AL	.
16B-JJ)	.
8cL)	.
8B-J	.
=141	=141
2.r	.
=142	=142
(>4.A-X	.
16B-LL	f
16A-JJ	.
8G'L)	.
8A-'J	.
=143	=143
4BBn'	.
4C'	.
4C#X'	.
=144	=144
4D	.
(4f'	.
4e-X')	.
=145	=145
!!linebreak:original
8dL	.
(>16fL	.
16e-XJJ	.
(4.d	sf
8e-)	.
=146	=146
(>8dL	.
(>16fL	.
16e-XJJ	.
4.d)	sf
8e-)	.
=147	=147
2.r	.
=148	=148
2.r	.
=149	=149
8e-XL	.
16cL	.
(>16d-XJJ	.
4.e-	sf
8d-)	.
=150	=150
8e-XL	.
16cL	.
(>16d-XJJ	.
4.e-)	sf
8d-	.
=151	=151
4BB-	fp
4r	.
4r	.
=152	=152
2.r	.
=153	=153
2.r	.
=154	=154
2.r	.
=155	=155
2.G'	fp
=156	=156
2.D-X'	.
=157	=157
2.BB-'	.
=158	=158
!!linebreak:original
4GG-X'	.
4FF'	.
4EEn'	.
=159	=159
4FF	.
4r	fp
4r	.
=160	=160
2.r	.
=161	=161
2.r	.
=162	=162
2.r	.
=163	=163
2.D-X	.
=164	=164
2.AA-X	fp
=165	=165
2FF	.
4DD-X'	.
=166	=166
4D-X'	.
4C'	.
4BBn'	.
=167	=167
4CC 4C	.
8r	.
8C'L	sf
8C'	.
8C'J	.
=168	=168
4EE	.
8r	.
8E'L	sf
8E'	.
8E'J	.
=169	=169
4GG	.
8r	.
8G'L	sf
8G'	.
8G'J	.
=170	=170
4C	.
8r	.
8c'L	sf
8c'	.
8c'J	.
=171	=171
!!linebreak:original
16CC'LL	.
16C'	.
16BBn	.
16AA'JJ	.
16GG'LL	.
16FF'	.
16EE'	.
16DD'JJ	.
[4CC	.
=172	=172
16CCLL]	sf
16C'	.
16BBn	.
16AA'JJ	.
16GG'LL	.
16FF'	.
16EE'	.
16DD'JJ	.
[4CC	sf
=173	=173
16CCLL]	.
16C'	.
16BBn	.
16AA'JJ	.
16GG'LL	.
16FF'	.
16EE'	.
16DD'JJ	.
16CC'LL	.
16C'	.
16BB'	.
16AA'JJ	.
=174	=174
16GG'LL	.
16FF'	.
16EE'	.
16DD'JJ	.
16CC'LL	.
16C'	.
16BBn'	.
16AA'JJ	.
16GG'LL	.
16FF'	.
16EE'	.
16DD'JJ	.
=175	=175
!!linebreak:original
8CC'L	.
16DD'L	.
16EE'JJ	.
16FF'LL	.
16GG'	.
16AA'	.
16BBn'JJ	.
[4C	sf
=176	=176
8CL]	.
16C'L	.
(>16D'JJ	.
16ELL	.
16F	.
16G	.
16AJJ)	.
[4B-X	sf
=177	=177
8B-'L]	.
8A'	.
8G'	.
8F'	.
8E'	.
8D'J	.
=178	=178
!LO:TX:b:Bi:t=Cresc.	!
8C'L	.
8D'	.
8C'	.
8BB-'	.
8AA'	.
8GG'J	.
=179	=179
(4.FF	ff
16GGLL	.
16FFJJ)	.
8EE'L	.
8FF'J	.
=180	=180
4CC	.
4r	.
4r	.
=181	=181
(<4.FF	.
16GGLL	.
16FFJJ)	.
8EE'L	.
8FF'J	.
=182	=182
!!linebreak:original
4DD	.
4r	.
4r	.
=183	=183
2.D	<
=184	=184
2.E	>
=185	=185
(>4F	.
4D	.
4BB-)	.
=186	=186
2.C	.
=187	=187
2.r	.
=188	=188
2.r	.
=189	=189
2.r	.
=190	=190
2.r	.
=191	=191
(<4D-X	p
4BB-	.
4GG-X)	.
=192	=192
4AA-X'	.
4A-X'	.
4r	.
=193	=193
2.r	.
=194	=194
2.r	.
=195	=195
(>4B-	.
4G-X	.
4E-X)	.
=196	=196
(>2.F	.
=197	=197
!LO:TX:b:Bi:t=Cresc.	!
4D-X)	.
4DD-X	.
4DD-	.
=198	=198
!!linebreak:original
[2.GG-X	p
=199	=199
2.GG-]	.
=200	=200
[2.AA-X	.
=201	=201
2.AA	.
=202	=202
[2.BB-	.
=203	=203
2.BB-]	.
=204	=204
[2.FF	.
=205	=205
4FF]	.
4AA-X	.
4DD-X	.
=206	=206
!LO:TX:b:Bi:t=Cresc.	!
(>2.GG-X	.
=207	=207
2.FF)	.
=208	=208
2EEn	.
4En'	.
=209	=209
4F'	.
4E-X'	.
4D-X'	.
=210	=210
4C	.
4r	.
4r	.
=211	=211
!!linebreak:original
16r	p
16C'LL	.
16Dn'	.
16En'JJ	.
16F'LL	.
16G'	.
16A'	.
16Bn'JJ	.
16c'LL	.
16B'	.
16c'	.
16B'JJ	.
=212	=212
4c	.
4r	.
4r	.
=213	=213
16r	.
16C'LL	.
16D'	.
16E'JJ	.
16F'LL	.
16G'	.
16A'	.
16Bn'JJ	.
16c'LL	.
16B'	.
16c'	.
16B'JJ	.
=214	=214
4c	.
!LO:TX:b:Bi:t=Cresc.	!
8r	.
8c'L	.
8c'	.
8F'J	.
=215	=215
16c'LL	ff
16CC'	.
16DD	.
16EE'JJ	.
16FF'LL	.
16GG'	.
16AA'	.
16BBn'JJ	.
16C'LL	.
16BB	.
16C	.
16BBJJ	.
=216	=216
!!linebreak:original
4C'	.
4r	.
4r	.
=217	=217
2.r	.
=218	=218
2.r	.
=219	=219
2.r	.
=220	=220
2.r	.
=221	=221
2.r	.
=222	=222
2.r	.
=223	=223
2.r	.
=224	=224
2.r	.
=225	=225
4r	.
8r	.
(8BnL	p
8c	.
8c#XJ	.
=226	=226
8d)	.
(8dL	.
8B-X'J)	.
(8B-L	.
8G'J)	.
(8G	.
=227	=227
8E')	.
(8EL	.
8C'J)	.
(8CL	.
8E'J)	.
(8E	.
=228	=228
8F')	.
(8FL	.
8G'J)	.
(8GL	.
8A'J)	.
8A'	.
=229	=229
4.B-	.
8r	.
4r	.
=230	=230
2.r	.
=231	=231
2.r	.
=232	=232
2.r	.
=233	=233
!!linebreak:original
(>4.c	p
16dLL	.
16cJJ)	.
8Bn'L	.
8c'J	.
=234	=234
2.c	.
=235	=235
(>4.c	.
16dLL	.
16cJJ)	.
8Bn'L	.
8c'J	.
=236	=236
2.c	.
=237	=237
!LO:TX:b:Bi:t=Cresc.	!
(>4.c	.
16dLL	.
16cJJ)	.
8Bn'L	.
8c'J	.
=238	=238
(>2e-X	.
4c)	f
=239	=239
4d	.
4BB-	.
4r	.
=240	=240
2.r	.
=241	=241
4r	.
4r	.
16r	.
!LO:TX:b:Bi:t=Cresc.	!
16DLL	.
16E	.
16F#XJJ	.
=242	=242
!!linebreak:original
16GLL	.
16A	.
16B-	.
16cJJ	.
16dLL	.
16c	.
16B-	.
16AJJ	.
16GLL	.
16Fn	.
16E	.
16DJJ	.
=243	=243
(>4.C	f
16DLL	.
16EJJ	.
16FLL	.
16G	.
16A	.
16BnJJ)	.
=244	=244
8cL	.
8C	.
8C	.
8C	.
8C	.
8CJ	.
=245	=245
4F'	.
4r	.
4r	.
=246	=246
2.r	.
=247	=247
2.r	.
=248	=248
2.r	.
=249	=249
2.r	.
=250	=250
2.F	pp
=251	=251
([2.BB-	fp
=252	=252
(4BB-]	.
4C')	.
4CC')	.
=253	=253
!!linebreak:original
4FF'	.
4r	.
4r	.
=254	=254
2.r	.
=255	=255
2.r	.
=256	=256
2.r	.
=257	=257
2.r	.
=258	=258
2.F	sf
=259	=259
2.D-X	sf
=260	=260
2E	sf
4E-X	sf
=261	=261
4D'	ff
4C'	.
4F'	.
=262	=262
(>4.F	p
16GLL	.
16FJJ)	.
8E'L	.
8F'J	.
=263	=263
4FF	.
4r	.
4r	.
=264	=264
(>4.F	.
16GLL	.
16FJJ)	.
8E'L	.
8F'J	.
=265	=265
4FF	.
4r	.
4r	.
=266	=266
!!linebreak:original
(>16GLL	.
16F	.
16E	.
16FJJ)	.
(>16GLL	.
16F	.
16E	.
16FJJ)	.
(>16GLL	.
16F	.
16E	.
16FJJ)	.
=267	=267
4FF	.
4r	.
4r	.
=268	=268
(>16GLL	.
16F	.
(>16E	.
16FJJ)	.
16GLL	.
16F	.
(>16E	.
16FJJ)	.
16GLL	.
16F	.
16E	.
16FJJ)	.
=269	=269
4FF	.
4r	.
4r	.
=270	=270
4FF'	.
4F'	.
4r	.
=271	=271
2.r	.
=272	=272
!!linebreak:original
16r	.
!LO:TX:b:Bi:t=Cresc.	!
16FLL	.
16E	.
16DJJ	.
16CLL	.
16BB-	.
16AA	.
16GGJJ	.
16FFLL	.
16F	.
16E	.
16DJJ	.
=273	=273
16CLL	.
16BB-	.
16AA	.
16GGJJ	.
(<16FFLL	.
16EE	.
16FF	.
16EEJJ)	.
16FFLL	.
16EE	.
16FF	.
16EEJJ)	.
=274	=274
4FF'	ff
4GG'	.
4AA'	.
=275	=275
4BB-'	.
4C'	.
4D'	.
=276	=276
[2.E-X	sf
=277	=277
2.E;	.
=278	=278
4DD'	ff
4EEn'	.
4FF#X'	.
=279	=279
!!linebreak:original
4GG'	.
4AA'	.
4BB-'	.
=280	=280
[2.C	sf
=281	=281
2.C;]	.
=282	=282
2.r	.
=283	=283
2.r	.
=284	=284
2.r	.
=285	=285
(4BBn	pp
4D	.
4GG)	.
=286	=286
4C	.
4r	.
4r	.
=287	=287
2.r	.
=288	=288
2.r	.
=289	=289
(<4CC	.
4EE	.
4GG)	.
=290	=290
4C	.
4r	.
4r	.
=291	=291
(4CC	.
4FF	.
4AA)	.
=292	=292
4C	.
4r	.
4r	.
=293	=293
!!linebreak:original
(>4CC	.
4C	.
!LO:TX:b:Bi:t=Cresc.	!
4C#X)	.
=294	=294
2.D	.
=295	=295
2.E	.
=296	=296
2.F#X	sf
=297	=297
2.G	.
=298	=298
2.A	sf
=299	=299
2.Bn	.
=300	=300
2.c	pp
=301	=301
2C	.
4CC	.
=302	=302
(<4.FF	pp
16GGLL	.
16FFJJ)	.
8EE'L	.
8FF'J	.
=303	=303
2.FF	.
=304	=304
(<4.FF	.
16GGLL	.
16FFJJ)	.
8EE'L	.
8FF'J	.
=305	=305
!!linebreak:original
!LO:TX:b:B:t=Adagio	!
[2.FF	.
=306	=306
4FF]	.
4r	.
4r	.
=307	=307
2.r	.
=308	=308
4r	.
4FF	pp
4FF	.
=309	=309
(<16FFLL	.
16EE	.
16DD	.
16EEJJ	.
16FFLL	.
16EE	.
16DD	.
16EEJJ	.
16FFLL	.
16EE	.
16DD	.
16EEJJ)	.
=310	=310
4FF	.
4r	f
8E'L	sf
8F'J	.
=311	=311
4C	.
4r	.
8GG#X'L	sf
8AA'J	.
=312	=312
4FF	.
4r	.
8CC'L	sf
8EE'J	.
=313	=313
4FF'	.
4FF'	.
4r	.
==314	==314
!!linebreak:original
*M9/8	*
(>8D~L	pp
8D~	.
8D~J)	.
(8F~L	.
(>8F~	.
8F~J)	.
8E~L	.
8E~	.
8E~J)	.
=315	=315
8DL	<
8D	.
8DJ	.
8FL	.
8F	.
8FJ	.
8EL	.
8E	.
8EJ	.
=316	=316
8DL	[
8D	>
8DJ	.
8FL	.
8F	.
8FJ	.
8AL	.
8A	.
8AJ	.
=317	=317
8dL	]
8D	.
8DJ	.
8DL	.
8D	.
8DJ	.
8DL	.
8D	.
8DJ	.
=318	=318
!!linebreak:original
8EL	.
8E	.
8EJ	.
8EL	.
8E	.
8EJ	.
8EL	.
8E	.
8EJ	.
=319	=319
8EL	.
8E	.
8EJ	.
8EL	.
8E	.
8EJ	.
8EL	.
8E	.
8EJ	.
=320	=320
8FL	.
8F	.
8FJ	.
8FL	.
8F	.
8FJ	.
(8FL	.
8E	.
8DJ)	.
=321	=321
!LO:TX:b:Bi:t=Cresc.	!
8GL	.
8GG	.
8GGJ	.
8GGL	.
8GG	.
8GGJ	.
8GG#XL	.
8GG#	.
8GG#J	.
=322	=322
!!linebreak:original
4AA	p
8r	.
8r	.
8C#XL	.
8EJ	.
8DL	.
8GG	.
8GG#XJ)	.
=323	=323
(>8AAL	<
8BB-	.
8GG#XJ	.
8AAL	.
8C#X	.
8EJ	.
8DL	[
8GGn	>
8GG#XJ)	.
=324	=324
4AA	]
8r	.
4r	.
8r	.
[4.A	.
=325	=325
4A]	.
8r	.
4r	.
8r	.
4.BB-	.
=326	=326
(8AAL	.
8C#X	.
8EJ)	.
[4.A	.
8AL]	.
8A'	.
8A'J	.
=327	=327
!!linebreak:original
*clefG2	*
[2.A	pp
!LO:TX:b:Bi:t=Cresc.	!
4.A_	.
=328	=328
(>4A']	.
4.d	.
4.e)	.
=329	=329
[2.f	p
(8fL]	.
8a-X	.
8gJ)	.
=330	=330
[4.f	.
(>8fL]	.
8e	.
8d-XJ	.
8cL	.
8B-	.
8GJ)	.
*clefF4	*
=331	=331
(>4.G-X	.
8FL)	.
8FF	.
8FFJ	.
8FFL	.
8FF	.
8FFJ	.
=332	=332
!LO:TX:b:Bi:t=Cresc.	!
8BB-L	.
8BB-	.
8BB-J	.
8BB-L	.
8BB-	.
8BB-J	.
8BBnL	.
8BB	.
8BBJ	.
=333	=333
!!linebreak:original
4C	p
8r	.
4r	.
8r	.
4r	.
8r	.
=334	=334
8%9r	.
=335	=335
8CL	pp
(8Bn	.
8cJ	.
8F#XL	.
8G	.
8D#XJ	.
8EL	.
8BBn	.
8CJ)	.
=336	=336
[2.BB-	.
4.BB-]	.
=337	=337
(<2.AA	.
4.AA)	.
=338	=338
!LO:TX:a:Bi:t=Cresc.	!
(<2.EE	.
4.CC)	.
=339	=339
4FF	.
8r	.
4r	.
8r	.
4r	.
8r	.
=340	=340
!!linebreak:original
(>4.B-	.
4.A	.
4.E)	.
=341	=341
4F	.
8r	.
4r	.
8r	.
4r	.
8r	.
=342	=342
(>4.B-	.
4.A	.
4.E)	.
=343	=343
4F	.
8r	.
4r	.
8r	.
4r	.
8r	.
=344	=344
(<16ALL	.
16G#X	.
16A	.
16Gn	.
16F	.
16EJJ	.
16DLL	.
16C#X	.
16D	.
16Cn	.
16BB-	.
16AAJJ)	.
(16GGLL	.
16FF#X	.
16GG	.
16FFn	.
16EE	.
16DDJJ)	.
=345	=345
!!linebreak:original
(4.CC	.
!LO:TX:a:Bi:t=Cresc.	!
4.C	.
4.D-X)	.
=346	=346
(4.BB-	.
4.D-X	sf
4.C)	>
=347	=347
4FF'	p
8r	.
4r	.
8r	.
(4BB-	.
16CLL	.
16DJJ)	.
=348	=348
(<16E-XLL	.
16D	.
16E-	.
16D	.
16C	.
16BB-JJ	.
16AALL	.
16BB-	.
16AA	.
16BB-	.
16C	.
16BB-JJ	.
16AALL	.
16GG#X	.
16AA	.
16FF	.
16GG#	.
16AAJJ)	.
=349	=349
!!linebreak:original
(16BB-LL	.
16AA	.
16BB-	.
16AA-X	.
16GG	.
16FFJJ)	.
(16EELL	.
16CC	.
16EE	.
16GG	.
16C	.
16EJJ	.
16FLL	.
16E	.
16F	.
16G	.
16A-X	.
16FJJ)	.
=350	=350
(<4.BB-	.
4.D-X	sf
4.C)	>
=351	=351
8FFL	p
8F	.
8FJ	.
4F	.
8r	.
4r	.
8r	.
=352	=352
8FFL	.
8F	.
8FJ	.
4F	.
8r	.
4r	.
8r	.
=353	=353
8FL	.
8f	.
8fJ	.
4f	.
8r	.
4r	.
8r	.
=354	=354
8%9r	.
=355	=355
!!linebreak:original
[2.C	pp
(<4C]	.
8BB-	.
=356	=356
4AA	.
8GG	.
4FF	.
8EE	.
4DD	.
8CC#X)	.
=357	=357
(<8DDL	p
8D	.
8BB-J)	.
(4.C	.
4.CC)	.
=358	=358
4FF	pp
8r	.
4F	.
8r	.
4r	.
8r	.
=359	=359
4E-X	pp
8r	.
4e-X	.
8r	.
4r	.
8r	.
=360	=360
4D	.
8r	.
4d	.
8r	.
4r	.
8r	.
=361	=361
!!linebreak:original
8GGL	.
8GG	f
8GGJ	.
8BB-L	.
8BB-	.
8BB-J	.
8FF#XL	.
8FF#	.
8FF#J	.
=362	=362
8GGL	.
8GG	.
8GGJ	.
8BB-L	.
8BB-	.
8BB-J	.
8DL	.
8D	.
8DJ	.
=363	=363
!	!LO:DY:a
8AAL	<
8AA	[
!	!LO:DY:a
8AAJ	>
8CL	]
8C	.
8CJ	.
8DL	.
8D	.
8DJ	.
=364	=364
8FF#XL	.
8FF#	.
8FF#J	.
8AAL	.
8AA	.
8AAJ	.
8DL	.
8D	.
8DJ	.
=365	=365
8FFL	sf
8FF	.
8FFJ	.
8AA-XL	.
8AA-	.
8AA-J	.
8DL	.
8D	.
8C'J	.
=366	=366
!!linebreak:original
!LO:TX:b:Bi:t=Cresc.	!
8BBnL	.
8BB	.
8BBJ	.
8DL	.
8D	.
8DJ	.
8GGL	.
8GG	.
8GGJ	.
=367	=367
(32CLLL	pp
32BBn	.
32C	.
32D	.
32E-X	.
32D	.
32E-	.
32FJJ	.
8G'J)	.
4r	.
8r	.
4r	.
8r	.
=368	=368
(32AA-XLLL	.
32GG	.
32AA-	.
32BB-	.
32C	.
32BBn	.
32C	.
32DJJ	.
8E-X'J)	.
4r	.
8r	.
4r	.
8r	.
=369	=369
(32FF#XLLL	.
32EE	.
32FF#	.
32GG	.
32AA	.
32GG	.
32AA	.
32BB-JJ	.
8C'J)	.
4r	.
8r	.
4r	.
8r	.
=370	=370
!!linebreak:original
(<32GGLLL	.
32FF#X	.
32GG	.
32AA	.
32BB-	.
32AA	.
32BB-	.
32CJJ	.
8D'J)	.
4r	.
8r	.
4r	.
8r	.
=371	=371
!LO:TX:a:Bi:t=Cresc.	!
(<32EE-XLLL	.
32DD	.
32EE-	.
32FF'	.
32GG	.
32FF	.
32GG	.
32AA-XJJ	.
8BB-'J	.
4r	.
8r	.
4r	.
8r	.
=372	=372
4C#X~	f
8r	.
4r	.
8r	.
4r	.
8r	.
=373	=373
4D	p
8r	.
4r	.
8r	.
4r	.
8r	.
=374	=374
4GG	pp
8r	.
4r	.
8r	.
4r	.
8r	.
=375	=375
!!linebreak:original
4AA	ppp
8r	.
4r	.
8r	.
4r	.
8r	.
=376	=376
(>8D~L	pp
8D~	.
8D~J)	.
8FL	.
8F	.
8FJ	.
8EL	.
8E	.
8EJ	.
=377	=377
!LO:TX:b:Bi:t=Cresc.	!
8DL	.
8D	.
8DJ	.
8FL	.
8F	.
8FJ	.
8EL	.
[8E	.
8E'J]	.
=378	=378
8DL	.
8D	.
8DJ	.
8FL	.
8F	.
8FJ	.
8AL	.
8A	.
8AJ	.
=379	=379
8DDL	.
8D	.
8DJ	.
8DDL	.
8D	.
8DJ	.
8DDL	.
8D	.
8DJ	.
=380	=380
!!linebreak:original
8EEL	f
8E	.
8EJ	.
8EEL	.
8E	.
8EJ	.
8EEL	.
8E	.
8EJ	.
=381	=381
8EEL	p
8E	.
8EJ	.
8EEL	.
8E	.
8EJ	.
8EEL	.
8E	.
8EJ	.
=382	=382
8FFL	.
8F	f
8FJ	.
8FFL	.
8F	.
8FJ	.
8FFL	.
8F	.
8FJ	.
=383	=383
8GGL	p
8G	.
8GJ	.
8GGL	.
8G	.
8GJ	.
8GG#XL	.
8G#X	.
8G#J	.
=384	=384
4AA	.
8r	.
8r	.
8C#XL	.
8EJ	.
8DL	.
8GG	.
8GG#XJ)	.
=385	=385
!!linebreak:original
(8AAL	.
8BB-	<
8GG#XJ	.
8AAL	.
8C#X	.
8EJ	.
8DL	[
8GGn	>
8GG#XJ)	.
=386	=386
4AA	]
8r	.
4r	.
8r	.
(4.A	pp
=387	=387
4A)	.
8r	.
4r	.
8r	.
(4.BB-	sf
=388	=388
(8AAL	p
8C#X	.
8EJ	.
8AL	.
8G	.
8F#XJ	.
8EL	.
8D	.
8C#J)	.
=389	=389
4D	p
8r	.
4r	.
8r	.
4r	.
8r	.
=390	=390
!!linebreak:original
(4.G	.
4F#X	.
4.C#X)	.
=391	=391
4D	.
8r	.
4r	.
8r	.
4r	.
8r	.
=392	=392
(>4.G	.
4.F#X	.
4.C#X)	.
=393	=393
4D	.
8r	.
4r	.
8r	.
4r	.
8r	.
=394	=394
(>16FLL	.
16E#X	.
16F	.
16En	.
16D	.
16C#XJJ	.
16BBnLL	.
16AA#X	.
16BB	.
16AAn	.
16GG	.
16FF#XJJ	.
16EELL	.
16BB	.
16E	.
16D	.
16C#	.
16BBJJ)	.
=395	=395
!!linebreak:original
!LO:TX:b:Bi:t=Cresc.	!
(<2.AA	.
4.BB-)	.
=396	=396
(<4.GG	.
4.BB-	sf
4.AA)	>
=397	=397
4D	p
8r	.
4r	.
8r	.
16GLL	.
16F#X	.
16G	.
16F#	.
16E	.
16DJJ)	.
=398	=398
(<16CLL	.
16BB-	.
16C	.
16BB-	.
16AA	.
16GGJJ	.
16FF#XLL	.
16GG	.
16FF#	.
16GG	.
16AA	.
16GGJJ	.
16FF#LL	.
16EE	.
16FF#	.
16DD	.
16EE	.
16FF#JJ)	.
=399	=399
!!linebreak:original
!LO:TX:a:Bi:t=Cresc.	!
16GGLL	.
(16B-	.
16G	.
16F	.
16E	.
16DJJ	.
16C#XLL	.
16BBn	.
16C#	.
16AA	.
16BB	.
16C#JJ	.
16DLL	.
16C#	.
16D	.
16AA	.
16FF	.
16DDJJ)	.
=400	=400
4.GG	.
(4.BB-	.
4.AA)	sf
=401	=401
8DDL	p
8D	.
8DJ	.
4D	.
8r	.
4r	.
8r	.
=402	=402
8DDL	.
8D	.
8DJ	.
4D	.
8r	.
4r	.
8r	.
=403	=403
!!linebreak:original
8DL	.
8d	.
8dJ	.
4d	.
8r	.
4r	.
8r	.
=404	=404
8%9r	.
=405	=405
[2.AA	pp
(<4AA]	.
8GG	.
=406	=406
!LO:TX:a:Bi:t=Cresc.	!
4FF#X)	.
8EE	.
(8DDL	.
8D	.
8C#XJ	.
4BBn	.
8AA#X)	.
=407	=407
(4BBn	.
8GG)	.
[4.AAn	p
4.AA]	>
=408	=408
4D	pp
8r	.
4r	.
8r	.
4r	.
8r	.
=409	=409
!!linebreak:original
*clefG2	*
[2.a	p
!LO:TX:b:Bi:t=Cresc.	!
4.a_	.
=410	=410
4.a]	.
(4.dd	.
4.ee)	.
=411	=411
(>4.ff	f
4ff)	fp
16eeLL	.
16ddJJ)	.
(16ddLL	.
32eeL	.
32ddJ	.
16cc#X	.
16dd	.
16ff	.
16eeJJ)	.
=412	=412
(>4.dd	.
[4.cc#X)	f
8cc#L]	.
(16cc#L	.
16dd	.
16ee	.
16ffJJ)	.
=413	=413
!!linebreak:original
(>4.gg	p
!LO:TX:b:Bi:t=Cresc.	!
8gg)	.
32qaa/	.
16ggLL	.
16ff#X	.
16gg	.
16aaJJ)	.
(4bb-	.
8cc#X)	.
=414	=414
(>4.ee	f
[4.dd)	.
8.dd]	.
*clefF4	*
8FF'L	.
8FF'J	.
=415	=415
4GG~	f
8r	.
4r	.
8r	.
4r	.
8r	.
=416	=416
4AA~	f
8r	.
4r	.
8r	.
4r	.
8r	.
=417	=417
4BB-~	.
8r	f
4r	.
8r	.
4r	.
8r	.
=418	=418
!!linebreak:original
!	!LO:DY:a
16GG#XLL	ff
16GG#	>
16GG#	.
16GG#	.
16GG#	.
16GG#JJ	.
4.GG#	.
4.AA	p
=419	=419
4DD	.
8r	.
4r	.
8r	.
4r	.
8r	.
=420	=420
(4.AA	.
4D)	>
8r	]
4r	.
8r	.
=421	=421
(<4.AA	.
4D)	>
8r	.
4r	]
8r	.
=422	=422
[2.AA	<
4.AA]	>
=423	=423
4DD	]
8r	pp
4D	.
8r	.
4r	.
8r	.
==424	==424
!!linebreak:original
*M3/4	*
!LO:TX:a:B:t=Allegro molto.	!
4FF'	p
4AA'	.
4BB-'	.
=425	=425
(<2C	.
8BB-L	.
8AAJ)	.
=426	=426
4GG'	.
4BB-'	.
4C'	.
=427	=427
(2D	.
8CL	.
8BBnJ)	.
=428	=428
(>4AA	.
4C	.
4E	.
=429	=429
4A')	.
4r	.
4r	.
=430	=430
(2.G	.
=431	=431
4c)	.
4r	.
4r	.
=432	=432
(2.GG	f
=433	=433
4C)	.
4r	.
4r	.
=434:|!|:	=434:|!|:
!!linebreak:original
(2A-X	p
4c)	.
=435	=435
(>2B-	.
4E-X)	.
=436	=436
2A-X	.
4AA-X	.
=437	=437
(>2F	.
4A-X)	.
=438	=438
(>2G	.
4C)	.
=439	=439
2F	.
4FF	.
=440	=440
2.r	.
=441	=441
(>2A-X	.
8G-XL	.
8FJ)	.
=442	=442
4E-X	.
4r	.
4r	.
=443	=443
(>2B-	.
8A-XL	.
8GJ)	.
=444	=444
4F'	.
4A-X'	.
4B-'	.
=445	=445
!!linebreak:original
(>2c	.
8B-L	.
8A-XJ)	.
=446	=446
(>4G	.
4F	.
4E	.
=447	=447
4F	.
4D-X	.
4BBn)	.
=448	=448
4C'	.
4c'	.
4r	.
=449	=449
4C'	.
4c'	.
4r	.
=450	=450
4C'	.
4c'	.
4r	.
=451	=451
4C'	.
4c'	.
4r	.
=452	=452
4C'	.
4r	.
4r	.
=453	=453
4G'	pp
4E'	.
4D'	.
=454	=454
4C'	.
4r	.
4r	.
=455	=455
!!linebreak:original
4GG'	.
4EE'	.
4DD'	.
=456	=456
4CC'	.
4r	.
4r	.
=457	=457
4G'	.
4E'	.
4D'	.
=458	=458
4C'	.
4r	.
4r	.
=459	=459
4C'	.
4BB-'	.
4GG'	.
=460	=460
4FF'	.
4AA'	.
4BBn'	.
=461	=461
!LO:TX:b:Bi:t=Cresc.	!
(<2C	.
8BB-L	.
8AAJ)	.
=462	=462
4GG'	.
4BBn'	.
4C#X'	.
=463	=463
(>2D	.
8CL	.
8BBnJ)	.
=464	=464
(>4AA	p
4C	.
4E	.
=465	=465
!!linebreak:original
4A')	.
4r	.
4r	.
=466	=466
(<4D	pp
4F	.
4A	.
=467	=467
4d')	.
4r	.
4r	.
=468	=468
(<4F	ppp
4A	.
4c	.
=469	=469
4f')	.
4r	.
4r	.
=470	=470
(2.c	.
=471	=471
4f)	.
4r	.
4r	.
=472	=472
(>2.C	.
=473	=473
4F)	.
4r	.
4r	.
=474	=474
2.GGT	sf
(16qqFF/LL	.
16qqGG/JJ)	.
=475	=475
4FF	.
4r	.
4r	.
=476	=476
!!linebreak:original
2.GGT	sf
(16qqFF/LL	.
16qqGG/JJ)	.
=477	=477
4FF	.
4r	.
4r	.
=478	=478
2.GGT	sf
(16qqFF/LL	.
16qqGG/JJ)	.
=479	=479
4FF	.
4r	.
4r	.
=480	=480
4AA	.
4A	.
4A	.
=481	=481
4B-	.
4BB-	.
4BB-	.
=482	=482
4r	.
4C	.
4C	.
=483	=483
4F	.
4r	.
4r	.
=484	=484
4AA	.
4A	.
4A	.
=485	=485
4B-	.
4BB-	.
4BB-	.
=486	=486
4r	.
4C	.
4C	.
=487	=487
!!linebreak:original
!LO:TX:b:Bi:t=Cresc.	!
4F'	.
4A'	.
4Bn'	.
=488	=488
(>2c	.
8B-L)	.
8AJ	.
=489	=489
4G'	.
4B-	.
4c#X'	.
=490	=490
(>2d	.
8cL)	.
8BnJ	.
=491	=491
(>4A	.
4g	.
4f	.
=492	=492
4e	.
4d	.
4c#X	.
=493	=493
4d')	.
4c	f
4B-	.
=494	=494
4A	.
4G	.
4F#X	.
=495	=495
4G)	.
4B-	.
4Bn	.
=496	=496
4c')	.
4EE	.
4FF	.
=497	=497
4GG	.
4AA	.
4BB-)	.
=498	=498
!!linebreak:original
(>4C	.
4D	.
4E	.
=499	=499
4F	.
4G	.
4A	.
=500	=500
4BB-	.
4GG)	.
4C'	.
=501	=501
4FF'	.
4r	.
[4F	sf
=502	=502
(>4F]	.
4E'	.
4C')	.
=503	=503
4F	.
4r	.
[4FF	sf
=504	=504
4FF']	.
4EE'	.
4CC'	.
=505	=505
4FF'	.
(<4EE'	sf
4CC'	.
=506	=506
4FF')	.
4E'	sf
(4C'	.
=507	=507
4F')	.
4FF'	.
4FF'	.
=508	=508
4FF'	.
4r	.
4r	.
=509:|!|:	=509:|!|:
!!linebreak:original
4C'	ff
4r	.
4CC'	.
=510	=510
4C'	.
4r	.
4CC'	.
=511	=511
4C'	.
4CC'	.
4C'	.
=512	=512
4CC'	.
4C'	.
4CC'	.
=513	=513
2.DD-X	.
=514	=514
[2.DD-X	sf
=515	=515
2.DD-_	.
=516	=516
2DD-_	.
4DD-']	.
=517	=517
2.DD-X	.
=518	=518
[2.DD-X	sf
=519	=519
2.DD-_	.
=520	=520
!!linebreak:original
2DD-]	.
4DD-X	.
=521	=521
4DD-X'	.
4D-X'	.
4D-'	.
=522	=522
(<4D-X	.
4C	.
4BBn)	.
=523	=523
4C	.
4r	.
4CC	.
=524	=524
4FF	.
4r	.
4r	.
=525:|!	=525:|!
2.r	.
=526	=526
2.r	.
=527	=527
2.r	.
=528	=528
2.r	.
=529	=529
4B-'	pp
4r	.
4BB-'	.
=530	=530
4B-'	.
4r	.
4BB-'	.
=531	=531
4B-'	.
4BB-'	.
4B-'	.
=532	=532
4BB-'	.
4B-'	.
4BB-'	.
=533	=533
2.r	.
=534	=534
!!linebreak:original
4E'	.
4EE'	.
4E	.
=535	=535
2.r	.
=536	=536
4F'	.
4FF'	.
4F'	.
=537	=537
4C'	pp
4r	.
4CC'	.
=538	=538
4C'	.
4r	.
4CC'	.
=539	=539
4C'	.
4CC'	.
4C'	.
=540	=540
4CC'	.
4C'	.
4CC'	.
=541	=541
!LO:TX:b:Bi:t=Cresc.	!
4C'	.
4r	.
4CC'	.
=542	=542
4C'	.
4r	.
4CC'	.
=543	=543
4C'	.
4CC'	.
4C'	.
=544	=544
4CC#X'	.
4C#X'	.
4CC#'	.
=545	=545
!!linebreak:original
2.DD	.
=546	=546
[2.DD	fp
=547	=547
2.DD_	.
=548	=548
2DD_	.
4DD']	.
=549	=549
2.DD	.
=550	=550
[2.DD	fp
=551	=551
2.DD_	.
=552	=552
2DD_	.
4DD']	.
=553	=553
2.GG	.
=554	=554
[2.GG	fp
=555	=555
2.GG_	.
=556	=556
2GG_	.
4GG']	.
=557	=557
2.GG	.
=558	=558
!!linebreak:original
[2.GG	fp
=559	=559
2.GG_	.
=560	=560
(<2GG]	.
4C')	.
=561	=561
2.CC	.
=562	=562
[2.CC	fp
=563	=563
2.CC_	.
=564	=564
(<2CC]	.
4C')	.
=565	=565
2CC	.
=566	=566
[2.CC	fp
=567	=567
4CC]	.
4r	.
4r	.
=568	=568
2.r	.
==569	==569
!!linebreak:original
*M2/4	*
!LO:TX:a:B:t=Allegro	!
!LO:TX:B:t=Scherzo D.C.	!
2r	.
=570	=570
8GG'L	p
8GG'	.
8EE'J	.
8r	.
=571	=571
2r	.
=572	=572
8AA'L	.
8AA'	.
8FF'J	.
8r	.
=573	=573
8r	.
(8EL	.
8F)	.
8FF'J	.
=574	=574
8r	.
(8EL	.
8F)	.
8FF'J	.
=575	=575
8r	.
(8EL	.
8F	.
8F#XJ)	.
=576	=576
8G'L	.
8GG'	.
8C'J	.
8r	.
=577	=577
!!linebreak:original
2r	.
=578	=578
8GG'L	.
8GG'	.
8EE'J	.
8r	.
=579	=579
2r	.
=580	=580
8AA'L	.
8AA'	.
8FF'J	.
8r	.
=581	=581
8r	.
(8EL	.
8F)	.
8FF'J	.
=582	=582
8r	.
(8EL	.
8F)	.
8FF'J	.
=583	=583
8r	.
(8EL	.
8F)	.
!LO:TX:b:Bi:t=Cresc.	!
8F#X'J	.
=584	=584
8G'L	.
8C#X'	.
8D'	.
8BBn'J	.
=585	=585
4C'~	f
4CC'~	.
=586	=586
4FF'~	.
4r	.
=587	=587
2r	.
=588	=588
2r	.
=589	=589
2r	.
=590	=590
!!linebreak:original
(>[16ELL	p
16F	.
16E	.
16FJJ	.
16ELL	.
16F	.
16C	.
16AAJJ)	.
=591	=591
4FF	.
4r	.
=592	=592
4r	.
8r	.
(8F	.
=593	=593
8E'L)	.
8C'	.
8E'	.
8C'J	.
=594	=594
8F'L	.
8FF'	.
8F'	.
8A'J	f
=595	=595
4.AA'	sf
(24AALL	.
24BBn	.
24C#XJJ)	.
=596	=596
8D'L	.
8E'	.
8F'	.
8GJ	.
=597	=597
8A'L	.
8Bn'	.
8c'	.
8c#X'J	.
=598	=598
8d'L	.
8e'J	.
(16qqd/LL	.
16qqe/JJ)	.
[4f	.
=599	=599
!!linebreak:original
8fL]	.
8e	.
(8dM	.
8cJ)	.
=600	=600
(>8B-ML	.
8A)	.
(8GM	.
8FJ)	.
=601	=601
(>8EmL	.
8D)	.
(8A'	.
8AA'J)	.
=602	=602
4D)	.
4r	p
=603	=603
2r	.
=604	=604
2r	.
=605	=605
(16c#XLL	p
16d	.
16c#	.
16dJJ	.
16c#LL	.
16d	.
16A	.
16FJJ)	.
=606	=606
8D	.
8r	.
4r	.
=607	=607
8BBn	.
8r	.
4r	.
=608	=608
8G#X	.
8r	.
8E	.
8r	.
=609	=609
!!linebreak:original
!LO:TX:a:Bi:t=Cresc.	!
8AAL	.
8A	.
8GG	.
8GJ	.
=610	=610
8FF#XL	.
8F#X	.
8DD	.
8DJ	.
=611	=611
(>8GGL	.
8DD	.
8FF#X	.
8GGJ	.
=612	=612
8AAL	p
8DD	.
8GG#X	.
8AAJ	.
=613	=613
8BBnL)	.
8DD	.
8AA	.
8BBJ	.
=614	=614
8CL	.
8DD	.
8EE	.
8FF#XJ)	.
=615	=615
(>8GGL	.
8DD	.
8FF#X	.
8GGJ	.
=616	=616
8AAL	.
8DD	.
8GG#X	.
8AAJ	.
=617	=617
8BBnL)	.
8GG	.
!LO:TX:b:Bi:t=Cresc.	!
8BB	.
8DJ)	.
=618	=618
!!linebreak:original
(<8GL	.
8GG	.
!LO:TX:b:Bi:t=Cresc.	!
8AA	.
8BBnJ)	.
=619	=619
(<8CL	p
8GG	.
8BBn	.
8CJ	.
=620	=620
8DL	.
8GG	.
8C	.
8DJ)	.
=621	=621
(<8E'L	.
8GG	.
8D	.
8EJ	.
=622	=622
8FL	.
8GG	.
8AA	.
8BBnJ)	.
=623	=623
(<8CL	.
8GG	.
8BBn	.
8CJ	.
=624	=624
8DL	.
8GG	.
8C#X	.
8DJ)	.
=625	=625
!LO:TX:b:Bi:t=Cresc.	!
(<8EL	.
8GG	.
8D	.
8EJ	.
=626	=626
8FL	.
8GG	.
8AA	.
8BBnJ)	.
=627	=627
!!linebreak:original
8C	p
8r	.
4r	.
=628	=628
2r	.
=629	=629
2r	.
=630	=630
2r	.
=631	=631
8F'	.
8r	.
8F'	.
8r	.
=632	=632
8G'	.
8r	.
8GG'	.
8r	.
=633	=633
4r	.
8r	.
(8BBn	.
=634	=634
8C)	.
8r	.
8r	.
(8GG#X	.
=635	=635
8AA)	.
8r	.
8r	.
(8E	.
=636	=636
8F)	.
8r	.
8r	.
(8C#X	.
=637	=637
8D)	.
8r	.
4r	.
=638	=638
!!linebreak:original
8GGL	.
!LO:TX:b:Bi:t=Cresc.	!
8G	.
8G	.
8GJ	.
=639	=639
8CL	p
(8c	sf
8d	.
8fJ)	.
=640	=640
8e'L)	.
(8c	sf
8d	.
8fJ	.
=641	=641
8e'L)	.
8c'J	.
8r	.
8F	.
=642	=642
8r	.
8G	.
8r	.
8GG	.
=643	=643
8r	.
(8CL	sf
8D	.
8GGJ)	.
=644	=644
8E-X'L	.
(8C	sf
8D	.
!LO:TX:b:Bi:t=Cresc.	!
8GGJ)	.
=645	=645
8E-X'L	.
8C'J	.
8r	.
8FF	.
=646	=646
8r	.
8GG	.
8r	.
8GG	.
=647	=647
!!linebreak:original
4C	p
4r	.
=648	=648
4GG	.
4r	.
=649	=649
4CC	.
4r	.
=650	=650
4GG	.
4GG	.
=651	=651
16CC'LL	.
16GG'	.
16C	.
16GG'JJ	.
16C'LL	.
16GG'	.
16C'	.
16GG'JJ	.
=652	=652
16BBnLL	.
16GG	.
16BB	.
16GGJJ	.
16BBLL	.
16GG	.
16BB	.
16GGJJ	.
=653	=653
16CLL	.
16GG	.
16C	.
16GGJJ	.
(16CLL	.
16GG)	.
16EE	.
16GGJJ	.
=654	=654
!!linebreak:original
16FFLL	.
16GG	.
16CC	.
16GGJJ	.
16FFLL	.
16GG	.
16DD	.
16GGJJ	.
=655	=655
(<4.CC	.
!LO:TX:a:Bi:t=Cresc.	!
8AA)	.
=656	=656
(4.BB-	.
8GG)	.
=657	=657
(<4.AA	.
8FF)	.
=658	=658
(4.GG	f
8CC)	.
=659	=659
8FF'	p
!LO:TX:a:Bi:t=Cresc.	!
8r	.
4r	.
=660	=660
8GG'L	.
8GG'	.
8EE'J	.
8r	.
=661	=661
2r	.
=662	=662
8AA'L	.
8AA'	.
8FF'J	.
8r	.
=663	=663
!!linebreak:original
8r	.
(8EL	.
8F)	.
8FF'J	.
=664	=664
8r	.
(8EL	.
8F)	.
8FF'J	.
=665	=665
8r	.
(8EL	.
8F	.
8F#XJ)	.
=666	=666
8G'L	.
8GG'	.
8C'J	.
8r	.
=667	=667
2r	.
=668	=668
4r	.
8C'L	p
8C'J	.
=669	=669
(>24B-LL	.
24A	.
24B-JJ	.
24cLL	.
24B-	.
24AJJ	.
24GLL	.
24F	.
24EJJ	.
24DLL	.
24C	.
24BB-JJ)	.
=670	=670
!!linebreak:original
8AA'L	.
8AA'	.
8C'J	.
8r	.
=671	=671
8AAL	.
!LO:TX:b:Bi:t=Cresc.	!
8AA	.
8CJ	.
8r	.
=672	=672
8FF#XL	.
8FF#	.
8DJ	.
8r	.
=673	=673
8GGL	.
8GG	.
8GJ	.
8r	.
=674	=674
8C#XL	.
8C#	.
8EJ	.
8r	.
=675	=675
8DL	f
8D	.
8FJ	.
8r	.
=676	=676
8BB-L	.
8BB-	.
8DJ	.
8r	.
=677	=677
8AA	.
[4.A	sf
=678	=678
8AL]	.
8A'	.
8A'	.
8A'J	.
=679	=679
!!linebreak:original
8AA'	.
[4.A	.
=680	=680
8AL]	sf
8A'	.
8A'	.
(8A'J	.
=681	=681
8AA')	.
[4.A	sf
=682	=682
2A_	.
=683	=683
!LO:TX:b:Bi:t=Cresc.	!
4.A]	.
8BB-'	.
=684	=684
8AA'L	f
8GG'	.
8FF'	.
8EE'J	.
=685	=685
8DD'	.
8r	.
4r	.
=686	=686
2r	.
=687	=687
2r	.
=688	=688
2r	.
=689	=689
[2G	.
=690	=690
(>8GL]	sf
32ALL	.
32B-	.
32c	.
32dJJJ	.
8e-X'L)	.
8e-J	.
=691	=691
!!linebreak:original
(4e-X	sf
8dL)	p
8cJ	.
=692	=692
8B-'L	.
8A'	.
8G'	.
8F'J	.
=693	=693
8E-X'L	.
8D'	.
8C'	.
8BB-'J	.
=694	=694
8AA-X'L	.
8GG'	.
8FF'	.
8F'J	.
=695	=695
8GGL	.
8GJ	.
8r	.
8G	.
=696	=696
8CL	.
8cJ	.
8r	.
8C	.
=697	=697
(24CLL	.
24BBn	.
24CJJ	.
24D-XLL	.
24C	.
24BB-XJJ	.
24AA-XLL	.
24GG	.
24AA-JJ	.
24BB-LL	.
24AA-	.
24GGJJ)	.
=698	=698
!!linebreak:original
(8FF'L	.
8FF'J	.
8FF'L)	.
[8FF'J	.
=699	=699
!LO:TX:a:Bi:t=Cresc.	!
8EE-X	.
(4E-X	.
8D-X')	.
=700	=700
8C'L	.
8BB-'	.
8AA-X'	.
8GG-X'J	.
=701	=701
8FF	ff
8d-X'L	pp
8d-'	.
8d-'J	.
=702	=702
8d-X'L	.
8d-'J	.
8d-'L	.
8d-'J	.
=703	=703
8d-XL	.
8d-	.
8d-	.
8d-J	.
=704	=704
8d-XL	.
8d-	.
8d-	.
8d-J	.
=705	=705
8c	.
8r	.
4r	.
=706	=706
2r	.
=707	=707
2r	.
=708	=708
2r	.
=709	=709
2r	.
=710	=710
2r	.
=711	=711
!!linebreak:original
8r	sf
8D-XL	.
8D-	.
8D-J	.
=712	=712
8D-X	.
8BB-L	sf
8BB-	.
8BB-J	.
=713	=713
8BB-	.
8G-XL	sf
8G-	.
8G-J	.
=714	=714
8G-X	.
8E-XL	sf
8E-	.
8E-J	.
=715	=715
8E-X	.
8r	.
4r	.
=716	=716
2r	.
=717	=717
8r	.
8GGL	sf
8GG	.
8GGJ	.
=718	=718
8GG	.
8r	.
4r	.
=719	=719
2r	.
=720	=720
4r	.
8r	.
(8C	p
=721	=721
!!linebreak:original
(>4.D	.
8BBn	.
=722	=722
4.GG	.
8F	.
=723	=723
4.E	.
8G	.
=724	=724
4.E	.
8C	.
=725	=725
4.D	.
8BBn'	.
=726	=726
4.GG	.
8F	.
=727	=727
8E-X)	.
8r	.
4r	.
=728	=728
2r	.
=729	=729
2r	.
=730	=730
2r	.
=731	=731
(>24cLL	.
24Bn	.
24cJJ	.
24d-XLL	.
24c	.
24B-XJJ	.
24A-XLL	.
24G	.
24A-JJ	.
24B-LL	.
24A-	.
24GJJ)	.
=732	=732
!!linebreak:original
(>8F'L	.
8F')	.
8F'	.
8F'J	.
=733	=733
8E'L	.
8C'	.
8D'	.
8E'J	.
=734	=734
8F'L	.
8G'	.
8A-X'	.
8An'J	.
=735	=735
8B-	.
8r	.
4r	.
=736	=736
2r	.
=737	=737
2r	.
=738	=738
4r	.
8r	.
8AA-X	.
=739	=739
8D-X'L	.
8d-X'	.
8d-'	.
8c'J	.
=740	=740
8B-'L	.
8A-X'	.
8G'	.
8F'J	.
=741	=741
8E'L	.
8e'	.
8e'	.
8d'J	.
=742	=742
!!linebreak:original
8c'L	.
8B-'	.
8A-X'	.
8GJ	.
=743	=743
8FL	f
8A-X'	.
8G'	.
8F'J	.
=744	=744
8E-X'L	.
8D-X'	.
8C'	.
8BBn'J	.
=745	=745
8C	.
8r	.
4r	.
=746	=746
2r	.
=747	=747
[2CC	sf
=748	=748
8CCL]	.
(<32DDLL	.
32EE	.
32FF	.
32GGJJJ	.
8AA-X'L)	.
8AA-'J	.
=749	=749
8GG'L	.
8CC'J	.
4r	.
=750	=750
2r	.
=751	=751
!!linebreak:original
[2CC	sf
=752	=752
(<8CCL]	.
40CCLL	.
40DD	.
40EE	.
40FF	.
40GG-XJJJ	.
8AA-X'L	.
!	!LO:DY:a
8FF'J)	f
=753	=753
8CCL	.
8cJ	.
8cL	pp
8cJ	.
=754	=754
8c'L	.
8c'	.
8c'	.
8c'J	.
=755	=755
8cL	.
8c	.
8c	.
8cJ	.
=756	=756
8c#XL	.
8c#	.
8c#	.
8c#J	.
=757	=757
8c#XL	.
8c#	.
8c#	.
8c#J	.
=758	=758
8c#XL	.
8c#J	.
8c#L	.
8c#J	.
=759	=759
!!linebreak:original
8d	.
8r	.
4r	.
=760	=760
2r	.
=761	=761
2r	.
=762	=762
2r	.
=763	=763
2r	.
=764	=764
4r	.
8r	.
(8D	.
=765	=765
4.E	.
!LO:TX:b:Bi:t=Cresc.	!
8C#X	.
=766	=766
4.AA	.
8G	.
=767	=767
8F#X)	sf
8DL	.
8D	.
8DJ	.
=768	=768
8D	sf
8DL	.
8D	.
8DJ	.
=769	=769
8D	.
8BB-L	sf
8BB-	.
8BB-J	.
=770	=770
8BB-	.
8BB-L	sf
8BB-	.
8BB-J	.
=771	=771
8BB-	.
8BB-L	p
8BB-	.
[8BB-J	.
=772	=772
!!linebreak:original
8BB-L]	.
8BB-	.
8BB-	.
8BB-J	.
=773	=773
(<8BB-L	.
8AAJ)	.
[4BB-	.
=774	=774
(<8BB-L]	.
8AAJ	.
[4BB-	.
=775	=775
(<8BB-L]	.
8AAJ)	.
[4BB-	.
=776	=776
8BB-L])	.
8AAJ)	.
[4BB-	.
=777	=777
8BB-L]	.
(8AA	.
8BB-	.
8CJ)	.
=778	=778
2D-X	.
=779	=779
(<8CL	.
8BBn	.
8C	.
8DJ)	.
=780	=780
2E-X	.
=781	=781
(8DL	.
8C#X	.
8D	.
8EJ)	.
=782	=782
(2F#X	.
=783	=783
!!linebreak:original
!LO:TX:b:Bi:t=Cresc.	!
(2G	.
=784	=784
2E)	.
=785	=785
(>4.F	.
8E)	.
=786	=786
2D	.
=787	=787
!LO:TX:b:Bi:t=Decresc.	!
8CC'L	.
8C'	p
8EE'	.
8E'J	.
=788	=788
8GG'L	.
8G'	.
8C	.
8c'J	.
=789	=789
8GG	.
8r	.
4r	.
=790	=790
2r	.
=791	=791
8CCL	.
8C'	.
8EE'	.
8EJ	.
=792	=792
8GG'L	.
8G'	.
8C'	.
8c'J	.
=793	=793
2r	.
=794	=794
2r	.
=795	=795
!!linebreak:original
8CC'L	.
8C'	.
8EE'	.
8E'J	.
=796	=796
8GG'L	.
8G'	.
8C'	.
8c'J	.
=797	=797
(4.d-X	sf
8c)	.
=798	=798
(4.d-X	sf
8c)	.
=799	=799
!LO:TX:b:Bi:t=Cresc.	!
8CL	.
8c	.
8C	.
8cJ	.
=800	=800
8CL	.
8c	.
8C	.
8cJ	.
=801	=801
4CC	.
4C	ff
=802	=802
4.c	sf
8C	.
=803	=803
8F	.
8r	p
4r	.
=804	=804
!!linebreak:original
8GG'L	.
8GG'	.
8EE'J	.
8r	.
=805	=805
2r	.
=806	=806
8AA'L	.
8AA'	.
8FF'J	.
8r	.
=807	=807
8r	.
(8EL	.
8F)	.
8FF'J	.
=808	=808
8r	.
(8EL	.
8F)	.
8FF'J	.
=809	=809
8r	.
(8EL	.
8F	.
8F#XJ)	.
=810	=810
8G'L	.
8GG'	.
8C'J	.
8r	.
=811	=811
2r	.
=812	=812
4r	.
8C'L	.
8C'J	f
=813	=813
8CC	.
8r	.
4r	.
=814	=814
!!linebreak:original
4r	.
8FL	f
8FJ	.
=815	=815
8FF'L	p
(8E	.
8F)	.
8FF'J	.
=816	=816
8r	.
(8EL	.
8F)	.
8FF'J	.
=817	=817
!LO:TX:b:Bi:t=Cresc.	!
8r	.
(8EL	.
8F)	.
8F#X'J	.
=818	=818
8G'L	.
8C#X'	.
8D'	.
8BBn'J	.
=819	=819
4C	f
4CC	.
=820	=820
4FF	.
4r	.
=821	=821
2r	.
=822	=822
2r	.
=823	=823
2r	.
=824	=824
(16ELL	p
16F	.
16E	.
16FJJ	.
16ELL	.
16F	.
16C	.
16AAJJ)	.
=825	=825
!!linebreak:original
4FF	.
4r	.
=826	=826
4r	.
8r	.
(8F	.
=827	=827
8EL)	.
8C'	.
8E'	.
8C'J	.
=828	=828
8FL	.
8FF	.
8FJ	.
8A'	.
=829	=829
4.AA	f
(24AALL	sf
24BBn	.
24C#XJJ)	.
=830	=830
8D'L	.
8E'	.
8F'	.
8G'J	.
=831	=831
8A'L	.
8Bn'	.
8c'	.
8c#XJ	.
=832	=832
8d'L	.
8e'J	.
(16qqd/LL	sf
16qqe/JJ)	.
[4f	.
=833	=833
(8fL]	.
8e)	.
(8dM	.
8cJ)	.
=834	=834
!!linebreak:original
(>8B-ML	.
8A)	.
8GM	.
8FJ)	.
=835	=835
(>8EL	.
8F)	.
8E-X'	.
8C'J)	.
=836	=836
8BB-	.
8r	p
4r	.
=837	=837
(>16ELL	.
16F	.
16E	.
16FJJ	.
16ELL	.
16F	.
16C)	.
16AAJJ	.
=838	=838
4FF	.
4r	.
=839	=839
(>16ALL	.
16B-	.
16A	.
16B-JJ	.
16ALL	.
16c	.
16F	.
16DJJ)	.
=840	=840
4BB-	.
4r	.
=841	=841
2r	.
=842	=842
2r	.
=843	=843
!!linebreak:original
8GG'L	.
8G'	.
8FF'	.
8F'J	.
=844	=844
8EE'L	.
8CC'J	.
8CC'L	.
8C'J	.
=845	=845
8FF'L	.
8F'	.
8EE'	.
8E'J	.
=846	=846
8DD'L	.
8D'	.
8GG'	.
8G'J	.
=847	=847
(<8C'L	.
8GG	.
8BBn	.
8C'J	.
=848	=848
8DL	.
8GG	.
8C#X	.
8DJ)	.
=849	=849
(<8EL	.
8GG	.
8D	.
8EJ	.
=850	=850
8FL	.
8GG	.
8AA	.
8BBnJ)	.
=851	=851
!!linebreak:original
(<8CL	.
8GG	.
8BBn	.
8CJ	.
=852	=852
8DL	.
8GG	.
8C	.
8DJ)	.
=853	=853
(>8EL	.
8C	.
8E	.
8GJ	.
=854	=854
8cL)	.
(8CC	.
8DD	.
8EEJ	.
=855	=855
8FFL)	.
(8CC	.
8EE	.
8FFJ	.
=856	=856
8GGL	.
8CC	.
8FF#X	.
8GGJ)	.
=857	=857
(<8AAL	.
8CC	.
8GG	.
8AAJ	.
=858	=858
8BB-L	.
8CC	.
8DD	.
8EEJ)	.
=859	=859
!!linebreak:original
(<8FFL	.
8CC	.
8EE	.
8FFJ	.
=860	=860
8GGL	.
8CC	.
8FF)	.
8GGJ	.
=861	=861
(<8AAL	.
8CC	.
8GG	.
8AAJ	.
=862	=862
8BB-L	.
8CC	.
8DD)	.
8EEJ	.
=863	=863
8FF	.
8r	.
4r	.
=864	=864
2r	.
=865	=865
2r	.
=866	=866
2r	.
=867	=867
8B-	p
8r	.
8B-	.
8r	.
=868	=868
8c	.
8r	.
8C	.
8r	.
=869	=869
4r	.
8r	.
8E	.
=870	=870
!!linebreak:original
8F	.
8r	.
8r	.
(8C#X	.
=871	=871
8D)	.
8r	.
8r	.
(8AA	.
=872	=872
8BB-)	.
8r	.
8r	.
(8FF#X	.
=873	=873
8GG)	.
8r	.
4r	.
=874	=874
8CCL	.
!LO:TX:b:Bi:t=Cresc.	!
8C	.
8C	.
8CJ	.
=875	=875
8FF	.
8r	p
8r	.
(8c	.
=876	=876
8f)	.
8r	.
8r	.
(8c	.
=877	=877
8fL)	.
8fJ	.
8r	.
8B-	.
=878	=878
!!linebreak:original
8r	.
8c	.
8r	.
8C	.
=879	=879
8r	.
(8FL	sf
8G	.
8CJ)	.
=880	=880
8A-X'L	.
(8F	sf
8G	.
8CJ)	.
=881	=881
(8A-XL	p
8FJ)	.
8r	.
8BB-	.
=882	=882
8r	.
8C	.
8r	.
8CC	.
=883	=883
4FF	.
4r	.
=884	=884
4C	.
4r	.
=885	=885
4F	.
4r	.
=886	=886
4C	.
4C	.
=887	=887
(16FFLL	.
!LO:TX:b:Bi:t=Cresc.	!
16C)	.
16F'	.
16C'JJ	.
16F'LL	.
16C'	.
16F'	.
16C'JJ	.
=888	=888
!!linebreak:original
16E'LL	.
!LO:TX:a:Bi:t=Cresc.	!
16C'	.
16E	.
16C'JJ	.
16E'LL	.
16C'	.
16E'	.
16C'JJ	.
=889	=889
16F'LL	.
16C'	.
16F'	.
16C'JJ	.
16F'LL	.
16C'	.
16AA'	.
16C'JJ	.
=890	=890
16BB-'LL	.
16C'	.
16GG'	.
16C'JJ	.
16BB-'LL	.
16C'	.
16GG'	.
16C'JJ	.
=891	=891
!LO:TX:b:Bi:t=Cresc.	!
(<4.FF	.
8D)	.
=892	=892
(>4.E-X	.
8C)	.
=893	=893
(>4.D	.
8BB-)	.
=894	=894
(4.C	f
8FF)	.
=895	=895
!!linebreak:original
8BB-	.
8r	p
4r	.
=896	=896
8c'L	.
8c'	.
8A'J	.
8r	.
=897	=897
2r	.
=898	=898
8d'L	.
8d'	.
8Bn'J	.
8r	.
=899	=899
(>24dLL	.
24c#X	.
24dJJ	.
24eLL	.
24d	.
24cnJJ	.
24B-LL	.
24A	.
24GJJ	.
24FLL	.
24E	.
24DJJ)	.
=900	=900
8C#X'L	.
8C#'	.
8E'J	.
8r	.
=901	=901
2r	.
=902	=902
!!linebreak:original
8C#XL	pp
8C#'	.
8E'J	.
8r	.
=903	=903
8G'L	.
8G'	.
8B-'J	.
8r	.
=904	=904
8C'L	.
8C'	.
8E-X'J	.
8r	.
=905	=905
8F#X'L	.
8F#'	.
8A'J	.
8r	.
=906	=906
8BBn'L	.
8BB'	.
8D'J	.
8r	.
=907	=907
8F'L	.
8F'	.
8A-X'J	.
8r	.
=908	=908
8F'L	.
8F'	.
8A-X'J	.
8r	.
=909	=909
8F'L	.
8F'	.
8A-X'J	.
16r	.
=910	=910
2r	.
=911	=911
2r	.
=912	=912
!!linebreak:original
!LO:TX:b:Bi:t=Cresc.	!
(4B-	.
[4d-X)	.
=913	=913
8d-L]	.
(8d-XJ	.
8cL)	.
8C'J	.
=914	=914
(2A	p
=915	=915
4.B-)	.
8G')	.
=916	=916
8E'L	.
8C'J	.
([4c	sf
=917	=917
8c'L]	.
8A')	.
8c'	.
8A'J	.
=918	=918
(>4.F~	.
8C')	.
=919	=919
(>4.G~	.
8C')	.
=920	=920
(4.B-~	.
8C)	.
=921	=921
8A	.
8r	.
4r	.
=922	=922
!!linebreak:original
!LO:TX:b:Bi:t=Cresc.	!
(24FLL	.
24E	.
24FJJ	.
24GLL	.
24F	.
24EJJ	.
24DLL	.
24C	.
24BB-JJ	.
24AALL	.
24GG	.
24FFJJ)	.
=923	=923
8EE'L	.
8EE'	.
8GG'J	.
8r	.
=924	=924
(24B-LL	.
24A	.
24B-JJ	.
24cLL	.
24B-	.
24AJJ	.
24GLL	.
24F	.
24EJJ	.
24DLL	.
24C	.
24BB-JJ)	.
=925	=925
(<8AA'L	.
8FF')	.
8AA'	.
8C'J	.
=926	=926
!!linebreak:original
8FL	f
8FJ	.
8r	.
8FF	.
=927	=927
8BB-L	.
8BB-J	.
8r	.
8B-	.
=928	=928
8CL	.
8CJ	.
8r	.
8CC	.
=929	=929
8FF'L	.
8F'	.
8C'	.
8AA'J	.
=930	=930
8FFL	.
8FFJ	.
8r	.
8F	.
=931	=931
8BB-L	.
8BB-J	.
8r	.
8B-	.
=932	=932
8CCL	.
8CCJ	.
8r	.
8C'	.
=933	=933
8FFL	.
8FJ	.
8r	.
(8E	p
=934	=934
!!linebreak:original
(8F'L	.
8FF'J	.
8r	.
(8E	.
=935	=935
8F'L)	.
8FF'J	.
8r	.
(8E	.
=936	=936
8F)	.
8FFL	.
8F'	.
8E'J	.
=937	=937
!LO:TX:b:Bi:t=Cresc.	!
8F'L	.
8E-X'	.
8D'	.
8BB-'J	.
=938	=938
8AAL	.
8FF	.
8BB-	.
8AAJ	.
=939	=939
8GGL	.
8C	.
8AA	.
8FFJ	.
=940	=940
8BB-L	.
8AA	.
8BB-	.
8BBnJ	.
=941	=941
8CL	.
8BBn	.
8C	.
8CCJ	.
=942	=942
!!linebreak:original
8FFL	.
8AA	.
8C	.
8CCJ	.
=943	=943
8FFL	.
8AA	.
8C	.
8CCJ	.
=944	=944
8FFL	.
8AA	.
8C	.
8CCJ	.
=945	=945
8FFL	.
8AA	.
8C	.
8CCJ	.
=946	=946
8FFL	.
8AA	f
8C	.
8CCJ	.
=947	=947
8FFL	.
8AA	.
8C	.
8CCJ	.
=948	=948
4FF'	.
4CC'~	ff
=949	=949
4FF'~	.
4r	.
==	==
*-	*-
!!!YEM:	FFIN conversion: MUSITEK, Ojai, California
!!!RDF**kern: > = above
!!!RDF**kern: < = below
